X:33
T: ES SASS AUF GRUENER HAIDE
N: Z0034
O: Europa, Mitteleuropa, Deutschland
R: Sagen - Lied, Romanze, Tod
M: 6/8
L: 1/16
K: A
E2 | A4A2B2A2B2 | =c6B2z2
Bc | d4=c2B4A2 | E6z4
E2 | A4A2B2A2B2 | =c6B2z2
Bc | d4=c2B4A2 | E6z4
E2 | B2G2E2E4E2 | =c4B2A4
A2 | d4=c2B4A2 | B4z8
A2B2=c2d2c2B2 | A2B2E2A4

